X: 20441
M: C|
L: 1/8
K: D
|: ef |\
a2fa g2eg | f2df ecAc | =c2c2 efge | =c2c2 efge |\
a2fa g2eg | f2df ecAc | d2d2 efge | f2d2 d2 :|


